X: 1
T: Boys Of Sandy Row, The
M: 4/4
L: 1/8
R: hornpipe
K: Dmaj
D|:GFGA BABG|E2 A2 ABAG|E2 ef gf e2|dedB AB A2|
GFGA BABG|E2 A2 A2 Bc|dfdB ABAG|F2 D2 D4:|
fdcd fdcd|fdfg a4|edcd edcd|edef g4|
fdcd fdcd|fdfg a2 Bc|dfdB ABAG|F2 D2 D4:|
